X:1
T:Title
%%score { ( 1 3 ) | ( 2 4 ) }
L:1/8
Q:1/4=100
M:4/4
K:Eb
V:1 treble nm="Grand Piano"
V:3 treble 
V:2 bass 
V:4 bass 
V:1
 G3 G _G2 =G2 | c4 B4 | [CF]3 [CF] [CEF]2 [CEG]2 | [DF]4- [B,DF]4 | G3 B A2 G2 | F2 c2 B4 | %6
w: G.~Hinton * * *||||||
 [CEA]2 [B,EG]2 [=A,CF]2 [_A,DF]2 |[M:8/4] [G,B,E]8 z8 |[M:4/4] [A,CE]8 | [G,B,E]8 |] %10
w: ||||
V:2
 [E,B,E]3 [E,B,E] [E,=A,E]2 [E,B,E]2 | [E,A,E]4 [E,G,E]4 | A,,3 A,, =A,,2 A,,2 | B,,8 | %4
 [E,B,E]3 [E,_DE] [E,CE]2 [E,B,E]2 | [=A,C]2 [_A,D]2 [E,G,E]4 | B,,2 B,,2 B,,2 B,,2 | %7
[M:8/4] E,8 z8 |[M:4/4] A,,8 | E,8 |] %10
V:3
 x8 | x8 | x8 | F,4 z4 | x8 | x8 | x8 |[M:8/4] x16 |[M:4/4] x8 | x8 |] %10
V:4
 x8 | x8 | x8 | x8 | x8 | E,4 z4 | x8 |[M:8/4] x16 |[M:4/4] x8 | x8 |] %10

